public/icons/img/activate-new-card.svg

<?xml version="1.0" encoding="UTF-8"?>
<svg width="57px" height="44px" viewBox="0 0 57 44" version="1.1" xmlns="http://www.w3.org/2000/svg" xmlns:xlink="http://www.w3.org/1999/xlink">
    <title>UI Elements/Icon / Account Settings / Active New Card</title>
    <defs>
        <path d="M3,0 L45.5,0 L45.5,0 L45.5,22.8888889 C45.5,23.9934584 44.6045695,24.8888889 43.5,24.8888889 L0,24.8888889 L0,24.8888889 L0,3 C9.76974179e-16,1.34314575 1.34314575,1.19253761e-15 3,0 Z" id="path-1"></path>
        <path d="M2,0 L47,0 C48.1045695,3.49926844e-15 49,0.8954305 49,2 L49,30 C49,31.1045695 48.1045695,32 47,32 L2,32 C0.8954305,32 1.87533573e-15,31.1045695 0,30 L0,2 C-5.7935996e-16,0.8954305 0.8954305,-1.91384796e-17 2,0 Z" id="path-3"></path>
        <rect id="path-5" x="26.25" y="8.88888889" width="3.5" height="21.3333333" rx="1"></rect>
        <filter x="-28.6%" y="-4.7%" width="157.1%" height="118.7%" filterUnits="objectBoundingBox" id="filter-6">
            <feOffset dx="0" dy="2" in="SourceAlpha" result="shadowOffsetOuter1"></feOffset>
            <feColorMatrix values="0 0 0 0 0   0 0 0 0 0   0 0 0 0 0  0 0 0 0.1 0" type="matrix" in="shadowOffsetOuter1"></feColorMatrix>
        </filter>
        <path d="M27.2222222,9.05555556 L28.7777778,9.05555556 C29.3300625,9.05555556 29.7777778,9.50327081 29.7777778,10.0555556 L29.7777778,29.0555556 C29.7777778,29.6078403 29.3300625,30.0555556 28.7777778,30.0555556 L27.2222222,30.0555556 C26.6699375,30.0555556 26.2222222,29.6078403 26.2222222,29.0555556 L26.2222222,10.0555556 C26.2222222,9.50327081 26.6699375,9.05555556 27.2222222,9.05555556 Z" id="path-7"></path>
        <filter x="-28.1%" y="-4.8%" width="156.2%" height="119.0%" filterUnits="objectBoundingBox" id="filter-8">
            <feOffset dx="0" dy="2" in="SourceAlpha" result="shadowOffsetOuter1"></feOffset>
            <feColorMatrix values="0 0 0 0 0   0 0 0 0 0   0 0 0 0 0  0 0 0 0.1 0" type="matrix" in="shadowOffsetOuter1"></feColorMatrix>
        </filter>
    </defs>
    <g id="Iconography-&amp;-Interface-Details" stroke="none" stroke-width="1" fill="none" fill-rule="evenodd">
        <g id="Icons" transform="translate(-791.000000, -602.000000)">
            <g id="UI-Elements/Icon-/-Account-Settings-/-Active-New-Card" transform="translate(788.000000, 592.000000)">
                <rect id="Rectangle" x="0" y="0" width="63" height="64"></rect>
                <g id="Group" transform="translate(3.500000, 10.666667)">
                    <g id="Group-5">
                        <path d="M2,0 L47,0 C48.1045695,3.49926844e-15 49,0.8954305 49,2 L49,30 C49,31.1045695 48.1045695,32 47,32 L2,32 C0.8954305,32 1.87533573e-15,31.1045695 0,30 L0,2 C-5.7935996e-16,0.8954305 0.8954305,-1.91384796e-17 2,0 Z" id="Rectangle" fill="#004B2E"></path>
                        <g id="Group-4" transform="translate(5.250000, 3.555556)" fill="#007E4E">
                            <rect id="Rectangle" x="0" y="0" width="10.5" height="7.11111111" rx="1"></rect>
                        </g>
                    </g>
                    <g id="Active-a-New-Card" transform="translate(3.500000, 7.111111)">
                        <g id="Card-Icon">
                            <mask id="mask-2" fill="white">
                                <use xlink:href="#path-1"></use>
                            </mask>
                            <use id="Rectangle" fill="#004B2E" opacity="0.25" xlink:href="#path-1"></use>
                        </g>
                        <g id="Card-Icon" transform="translate(3.500000, 3.555556)">
                            <mask id="mask-4" fill="white">
                                <use xlink:href="#path-3"></use>
                            </mask>
                            <use id="Rectangle" fill="#00B16E" xlink:href="#path-3"></use>
                            <rect id="Rectangle-Copy-13" fill="#004B2E" mask="url(#mask-4)" x="0" y="5.33333333" width="49" height="5.33333333"></rect>
                        </g>
                        <g id="Rectangle">
                            <use fill="black" fill-opacity="1" filter="url(#filter-6)" xlink:href="#path-5"></use>
                            <use fill="#FFFFFF" fill-rule="evenodd" xlink:href="#path-5"></use>
                        </g>
                        <g id="Rectangle-Copy" transform="translate(28.000000, 19.555556) rotate(90.000000) translate(-28.000000, -19.555556) ">
                            <use fill="black" fill-opacity="1" filter="url(#filter-8)" xlink:href="#path-7"></use>
                            <use fill="#FFFFFF" fill-rule="evenodd" xlink:href="#path-7"></use>
                        </g>
                    </g>
                </g>
            </g>
        </g>
    </g>
</svg>

<svg xmlns="http://www.w3.org/2000/svg" xmlns:xlink="http://www.w3.org/1999/xlink" width="57" height="44"
     xmlns:v="https://vecta.io/nano">
    <defs>
        <path d="M3 0h42.5v22.89a2 2 0 0 1-2 2H0V3a3 3 0 0 1 3-3z" id="A"/>
        <path d="M2 0h45a2 2 0 0 1 2 2v28a2 2 0 0 1-2 2H2a2 2 0 0 1-2-2V2a2 2 0 0 1 2-2z" id="B"/>
        <rect id="C" x="26.25" y="8.889" width="3.5" height="21.333" rx="1"/>
        <filter x="-28.6%" y="-4.7%" width="157.1%" height="118.7%" id="D">
            <feOffset dy="2" in="SourceAlpha"/>
            <feColorMatrix values="0 0 0 0 0 0 0 0 0 0 0 0 0 0 0 0 0 0 0.1 0"/>
        </filter>
        <path d="M27.222 9.056h1.556a1 1 0 0 1 1 1v19a1 1 0 0 1-1 1h-1.556a1 1 0 0 1-1-1v-19a1 1 0 0 1 1-1z" id="E"/>
        <filter x="-28.1%" y="-4.8%" width="156.2%" height="119.0%" id="F">
            <feOffset dy="2" in="SourceAlpha"/>
            <feColorMatrix values="0 0 0 0 0 0 0 0 0 0 0 0 0 0 0 0 0 0 0.1 0"/>
        </filter>
    </defs>
    <g transform="translate(.5 .667)" fill="none" fill-rule="evenodd">
        <path d="M2 0h45a2 2 0 0 1 2 2v28a2 2 0 0 1-2 2H2a2 2 0 0 1-2-2V2a2 2 0 0 1 2-2z" fill="#004b2e"/>
        <rect x="5.25" y="3.556" width="10.5" height="7.111" rx="1" fill="#007e4e"/>
        <g transform="translate(3.5 7.111)">
            <use fill="#004b2e" opacity=".25" xlink:href="#A"/>
            <g transform="translate(3.5 3.556)">
                <mask id="G" fill="#fff">
                    <use xlink:href="#B"/>
                </mask>
                <use fill="#00b16e" xlink:href="#B"/>
                <path fill="#004b2e" mask="url(#G)" d="M0 5.333h49v5.333H0z"/>
            </g>
            <use fill="#000" filter="url(#D)" xlink:href="#C"/>
            <use fill="#fff" xlink:href="#C"/>
            <g transform="matrix(0 1 -1 0 47.555556 -8.444444)">
                <use fill="#000" filter="url(#F)" xlink:href="#E"/>
                <use fill="#fff" xlink:href="#E"/>
            </g>
        </g>
    </g>
</svg>
